!!!OTL: 770. Jm Grabe ist Ruh'.
!!!COM: G. C. Claudius
!!!ODT: 1780
!!!ARE: Europa, Mitteleuropa, Deutschland
!!!SCT: B0770
!!!TXL: @@DE
!!!YEM: Copyright 1995, estate of Helmut Schaffrath.
**kern	**text
*ICvox	*
*Ivox	*
*clefG2	*
*M2/4	*
*k[f#]	*
*G:	*
!LO:TX:a:t=Langſam und ſanft.	!
{8d	Jm
=1	=1
4b	Gra-
8a	-be
8a	iſt
=2	=2
4g	Ruh',
8r}	.
{8d	drum
=3	=3
4g	wan-
8g	-ken
8g	dem
=4	=4
4b	trö-
8b	-ſten-
8dd	-den
=5	=5
(4dd	Ʒie-
4cc)	.
=6	=6
4b	-le
8r}	.
{8g	der
=7	=7
4ee	Lei-
8ee	-den-
8ee	-den
=8	=8
8ddL	vie-
8ccJ	.
8b}	-le
{8dd	ſo
=9	=9
8ddL	ſehn-
8ccJ	.
8b	-ſuchtsvoll
8a	.
=10	=10
4b	ʒu,
8r}	.
{8g	der
=11	=11
4ee	Lei-
8ee	-den-
8ee	-den
=12	=12
8ddL	vie-
8ccJ	.
8b}	-le
{8dd	ſo
=13	=13
8ddL	ſehn-
8ccJ	.
8b	-ſuchtsvoll
8a	.
=14	=14
4g	ʒu.
8r}	.
==	==
!!!AGN: Trost - Lied, religioes
!!!ONB: ESAC (Essen Associative Code) Database: BOEHME
!!!AMT: simple duple
!!!AIN: vox
!!!EED: Helmut Schaffrath
!!!EEV: 1.0
!!!GTL: Religioese Lieder
!!Kindermel. v. G. C. Claudius. 1780.
!!@@COMMENT:"Text von W. Chriſtoph Erhard Langhanſen 1791 (ſ. deſſen Gedichte, herausgegeben von
!!Schlippenbach 1820). Ʒuerſt ſteht das Lied mit obiger Melodie im Göttinger Muſenalmanach
!!unter "Poetiſche Blumenleſe auf's Jahr 1792". Göttingen, bei J. Ch. Dietrich. S. 165. Dort
!!unterʒeichnet Ung. (Ungenannter). Ueber der Mel. ſteht Langhanſen als Komponiſt angemerkt.
!!Letʒterer aber hat (wie er ſelbſt ſagt) eine Kindermelodie ʒu ſeinem Grabliede benutʒt. Das iſt die
!!Mel. von dem ſchon 1780 vorhandenen Liede Noch bin ich ein Kind". Ged. von Burmann,
!!mit Mel. in "Lieder für Kinder mit neuen, ſehr leichten Melodien". Frankfurt g. M. 1780. Jn
!!der Widmung nennt ſich Georg Carl Claudius als Komponiſt der Weiſen. Jch gebe das Lied
!!hier nach einer rheinländ. Hdſchr. , von einem Lehrer im Jahre 1789. Ebenſo bei Erk, Volksl. JJ. 1.
!!Nr. 42. Das Lied wurde ſonſt durch Cantoreien an den Gräbern geſungen, aber ohne die 4. und 5. Strophe.
!!*Hain für Tod."
!!@@END:
!!!Text: W. Ch. E. Langhanse
!!!URL-scan: https://archive.org/details/BoehmeVtLieder1895/page/n613/mode/2up
!!!ENC: Anna Maria Matuszewska
!!!EEV: 2024/19/07
*-	*-
